IMG/Logo-gb.svg

<svg viewBox="0 0 329.28 536.89" xmlns="http://www.w3.org/2000/svg"><g stroke="#e20e1a" stroke-miterlimit="10" stroke-width="4" transform="translate(-133 -152.5)"><path d="m296.94 154.5a10 10 0 0 0 -10 10v242.32a10 10 0 0 0 20 0v-242.32a10 10 0 0 0 -10-10z" fill="none"/><path d="m307.12 385c0-47.74-38.37-86.58-85.55-86.58a86.58 86.58 0 0 0 0 173.15 10 10 0 1 0 0-20 66.58 66.58 0 1 1 0-133.16c36.76 0 65.56 29.24 65.56 66.58a86.18 86.18 0 0 0 20.7 56.08v-46.88a65.79 65.79 0 0 1 -.71-9.19z" fill="#e30917"/><path d="m373.7 298.46a86.47 86.47 0 0 0 -44.89 12.54 10 10 0 1 0 10.38 17.09 66.62 66.62 0 1 1 -31.36 66.1v46.93a86.55 86.55 0 1 0 65.87-142.66z" fill="none"/><path d="m296.94 366.37a10 10 0 0 0 -10 10v214.74c-4.06 58.35-62 75.91-64.64 76.67a10 10 0 0 0 5.49 19.22c.74-.21 74.31-22 79.13-94.9v-215.75a10 10 0 0 0 -9.98-9.98z" fill="#e30917"/></g></svg>

<svg id="Calque_1" data-name="Calque 1" xmlns="http://www.w3.org/2000/svg" viewBox="0 0 329.28 536.89"><defs><style>.cls-1{fill:none;}.cls-1,.cls-2{stroke:#e20e1a;stroke-miterlimit:10;stroke-width:4px;}.cls-2{fill:#e30917;}</style></defs><path class="cls-1" d="M296.94,154.5a10,10,0,0,0-10,10V406.82a10,10,0,0,0,20,0V164.5A10,10,0,0,0,296.94,154.5Z" transform="translate(-133 -152.5)"/><path class="cls-2" d="M307.12,385c0-47.74-38.37-86.58-85.55-86.58a86.58,86.58,0,0,0,0,173.15,10,10,0,1,0,0-20,66.58,66.58,0,1,1,0-133.16c36.76,0,65.56,29.24,65.56,66.58a86.18,86.18,0,0,0,20.7,56.08V394.19A65.79,65.79,0,0,1,307.12,385Z" transform="translate(-133 -152.5)"/><path class="cls-1" d="M373.7,298.46A86.47,86.47,0,0,0,328.81,311a10,10,0,1,0,10.38,17.09,66.62,66.62,0,1,1-31.36,66.1v46.93A86.55,86.55,0,1,0,373.7,298.46Z" transform="translate(-133 -152.5)"/><path class="cls-2" d="M296.94,366.37a10,10,0,0,0-10,10V591.11c-4.06,58.35-62,75.91-64.64,76.67A10,10,0,0,0,227.79,687c.74-.21,74.31-22,79.13-94.9l0-215.75A10,10,0,0,0,296.94,366.37Z" transform="translate(-133 -152.5)"/></svg>
